assets/img/graduate icon.svg

<svg height="600" preserveAspectRatio="xMidYMid meet" viewBox="0 0 450 449.999984" width="600" xmlns="http://www.w3.org/2000/svg" xmlns:xlink="http://www.w3.org/1999/xlink" zoomAndPan="magnify"><clipPath id="a"><path d="m0 7.03125h416v264.96875h-416zm0 0"/></clipPath><clipPath id="b"><path d="m17 238h389v204.78125h-389zm0 0"/></clipPath><g clip-path="url(#a)"><path d="m365.691406 107.976562-147.542968 54.078126-190.746094-69.878907 190.746094-70.226562 157.027343 57.585937h40.75l-195.316406-71.632812c-1.40625-.699219-3.160156-.699219-4.917969 0l-211.125 77.601562c-2.808594 1.054688-4.566406 3.511719-4.566406 6.671875 0 3.160157 1.757812 5.617188 4.566406 6.671875l86.769532 31.953125v83.921875c0 3.863282 0 10.886719 53.746093 34.0625 12.296875 5.265625 53.394531 22.472656 72.015625 22.472656 18.96875 0 60.769532-17.207031 73.066406-22.472656 54.449219-23.175781 54.449219-30.199218 54.449219-34.0625v-83.921875l61.828125-22.824219zm-35.128906 104.289063c-11.59375 10.183594-90.984375 44.59375-113.464844 44.59375-21.78125 0-100.117187-34.410156-111.710937-44.59375v-76.546875l110.304687 40.378906c.703125.351563 1.757813.351563 2.457032.351563.703124 0 1.757812 0 2.460937-.351563l110.304687-40.378906zm0 0" fill="#e6a6cd"/></g><path d="m448.945312 220.691406c-1.054687-4.5625-2.105468-9.480468-2.808593-14.042968l-1.757813-14.046876-2.457031-14.046874c-1.054687-5.265626-1.757813-10.179688-2.8125-15.449219 5.621094-1.753907 9.835937-7.023438 9.835937-13.34375 0-6.671875-4.566406-12.289063-10.890624-13.691407.351562-.703124 1.054687-1.054687 1.40625-1.757812l2.109374-2.808594c1.050782-1.054687 0-2.105468.351563-2.808594v-34.761718c0-3.863282-3.164063-7.023438-7.027344-7.023438h-112.414062c-18.617188.351563-37.585938-.703125-56.203125 1.402344-11.59375 1.054688-23.1875 2.109375-35.128906 3.160156-1.757813-2.808594-7.027344-4.914062-13.351563-4.914062-7.726563 0-14.050781 3.160156-14.050781 7.023437s6.324218 7.023438 14.050781 7.023438c6.324219 0 11.242187-2.109375 13.351563-4.917969 11.589843 1.054688 23.183593 2.457031 35.128906 3.160156 18.617187 2.457032 37.585937 1.40625 56.203125 1.40625h105.386719v27.738282c.351562 1.054687-.699219 2.105468.351562 2.808593l2.109375 2.808594c.351563.703125 1.054687 1.054687 1.40625 1.757813-6.324219 1.402343-10.890625 7.023437-10.890625 13.695312 0 6.320312 4.214844 11.585938 9.835938 13.339844-1.054688 5.269531-2.109376 10.183594-2.8125 15.453125l-2.457032 14.042969-1.757812 14.046874c-.703125 4.5625-1.753906 9.480469-2.808594 14.046876-1.054688 4.5625-1.054688 9.480468 0 14.042968.703125 4.566406 2.105469 9.480469 4.214844 14.046875 2.109375 4.5625 4.566406 9.480469 8.429687 14.042969h2.8125c3.863281-4.5625 6.671875-9.480469 8.429688-14.042969 2.109375-4.566406 3.160156-9.480469 4.214843-14.046875 1.054688-3.863281 1.054688-8.425781 0-13.34375zm0 0" fill="#e6a6cd"/><g clip-path="url(#b)"><path d="m400.117188 349.207031c-3.160157-4.5625-9.484376-8.777343-14.753907-9.832031-144.730469-31.601562-332.671875-99.722656-334.425781-100.070312-.351562 0-1.054688-.351563-1.40625-.351563-.703125 0-21.078125 2.105469-28.453125 26.332031-2.8125 9.832032-3.863281 28.445313 10.890625 38.625-3.164062 1.40625-7.378906 3.511719-11.945312 4.566406-1.40625.351563-2.460938 1.757813-2.460938 3.511719 0 1.753907 1.40625 3.160157 2.8125 3.160157.703125 0 61.125 10.886718 128.570312 31.953124l-60.070312 18.960938 32.671875 2.109375-1.40625 16.5 39.34375-18.609375-10.539063 33.007812 22.132813-5.617187 17.914063 12.289063 2.8125-44.242188c68.148437 24.929688 130.328124 55.476562 161.941406 80.410156.703125.351563 1.40625.699219 2.109375.699219s1.40625-.347656 2.105469-.699219c0 0 15.457031-11.941406 27.402343-21.421875.351563-.351562.703125-.699219.703125-1.050781 4.917969-4.214844 8.429688-9.832031 10.890625-15.453125 8.078125-16.152344 12.996094-40.730469 3.160157-54.777344zm-372.367188-82.164062c5.269531-17.558594 18.269531-20.71875 21.78125-21.070313 7.027344 2.460938 57.964844 20.71875 124.707031 42.136719-9.132812 3.160156-16.511719 11.238281-20.726562 19.664063-3.863281 7.375-7.023438 17.558593-5.269531 26.6875-64.636719-21.769532-105.738282-32.65625-106.4375-33.007813-21.429688-8.425781-14.402344-33.355469-14.054688-34.410156zm328.808594 167.84375c-24.589844-18.960938-60.773438-37.570313-98.363282-54.425781 34.425782 12.992187 71.664063 28.089843 110.304688 44.59375h.351562c-5.269531 4.5625-9.835937 8.074218-12.292968 9.832031zm34.777344-33.359375c-2.8125 6.320312-10.539063 17.910156-19.320313 16.855468-4.566406-.351562-6.675781-6.671874-7.730469-10.535156-3.511718-12.289062 1.054688-29.496094 9.484375-38.625 2.8125-2.808594 7.027344-5.96875 10.539063-5.96875 1.757812 0 3.164062.703125 4.566406 2.457032 5.269531 5.96875 2.109375 22.472656-2.808594 29.847656-2.109375 3.160156-5.269531 5.265625-8.082031 5.96875-1.753906.351562-3.160156 0-4.214844-1.050782-2.105469-1.757812-3.160156-4.917968-2.808593-8.429687.351562-4.5625 2.808593-8.425781 5.621093-9.832031h.351563c.351562.351562.351562 1.40625 0 2.808594-.703125 1.757812.699218 3.863281 2.457031 4.214843 1.757813.703125 3.863281-.703125 4.214844-2.457031 1.054687-4.214844.351562-8.078125-2.457031-10.183594-1.054688-.703125-3.863282-2.457031-8.082032-.351562-4.917968 2.808594-8.78125 8.777344-9.484375 15.449218-.703125 5.96875 1.40625 11.589844 5.269531 14.75 2.8125 2.105469 6.324219 3.160157 9.835938 2.457032 4.917969-.703125 9.835938-4.214844 13-9.128906 0-.351563.351562-.351563.351562-.703126 0 .703126-.351562 1.753907-.703124 2.457032zm7.023437-28.441406c-.351563-4.566407-1.753906-8.777344-4.566406-11.585938-2.808594-3.160156-5.972657-4.566406-9.835938-4.917969 0 0 0 0-.351562 0-7.375 0-13.347657 5.617188-15.808594 8.078125-10.1875 10.882813-15.105469 30.898438-11.238281 45.296875.351562 1.402344.703125 2.457031 1.050781 3.511719-60.417969-25.636719-116.976563-47.054688-164.753906-63.910156-3.160157-9.128906 1.054687-19.664063 5.269531-27.738282 4.566406-8.425781 11.945312-16.855468 21.429688-19.664062 53.042968 16.152344 111.359374 32.304688 164.050781 43.890625 3.515625.703125 8.433593 3.863281 10.539062 7.023437 3.511719 4.917969 4.917969 11.941407 4.214844 20.015626zm0 0" fill="#e6a6cd"/></g></svg>

<svg xmlns="http://www.w3.org/2000/svg" xmlns:xlink="http://www.w3.org/1999/xlink" width="600" zoomAndPan="magnify" viewBox="0 0 450 449.999984" height="600" preserveAspectRatio="xMidYMid meet" version="1.0"><defs><clipPath id="id1"><path d="M 0 7.03125 L 416 7.03125 L 416 272 L 0 272 Z M 0 7.03125 " clip-rule="nonzero"/></clipPath><clipPath id="id2"><path d="M 17 238 L 406 238 L 406 442.78125 L 17 442.78125 Z M 17 238 " clip-rule="nonzero"/></clipPath></defs><g clip-path="url(#id1)"><path fill="#e6a6cd" d="M 365.691406 107.976562 L 218.148438 162.054688 L 27.402344 92.175781 L 218.148438 21.949219 L 375.175781 79.535156 L 415.925781 79.535156 L 220.609375 7.902344 C 219.203125 7.203125 217.449219 7.203125 215.691406 7.902344 L 4.566406 85.503906 C 1.757812 86.558594 0 89.015625 0 92.175781 C 0 95.335938 1.757812 97.792969 4.566406 98.847656 L 91.335938 130.800781 L 91.335938 214.722656 C 91.335938 218.585938 91.335938 225.609375 145.082031 248.785156 C 157.378906 254.050781 198.476562 271.257812 217.097656 271.257812 C 236.066406 271.257812 277.867188 254.050781 290.164062 248.785156 C 344.613281 225.609375 344.613281 218.585938 344.613281 214.722656 L 344.613281 130.800781 L 406.441406 107.976562 C 406.441406 107.976562 365.691406 107.976562 365.691406 107.976562 Z M 330.5625 212.265625 C 318.96875 222.449219 239.578125 256.859375 217.097656 256.859375 C 195.316406 256.859375 116.980469 222.449219 105.386719 212.265625 L 105.386719 135.71875 L 215.691406 176.097656 C 216.394531 176.449219 217.449219 176.449219 218.148438 176.449219 C 218.851562 176.449219 219.90625 176.449219 220.609375 176.097656 L 330.914062 135.71875 Z M 330.5625 212.265625 " fill-opacity="1" fill-rule="nonzero"/></g><path fill="#e6a6cd" d="M 448.945312 220.691406 C 447.890625 216.128906 446.839844 211.210938 446.136719 206.648438 L 444.378906 192.601562 L 441.921875 178.554688 C 440.867188 173.289062 440.164062 168.375 439.109375 163.105469 C 444.730469 161.351562 448.945312 156.082031 448.945312 149.761719 C 448.945312 143.089844 444.378906 137.472656 438.054688 136.070312 C 438.40625 135.367188 439.109375 135.015625 439.460938 134.3125 L 441.570312 131.503906 C 442.621094 130.449219 441.570312 129.398438 441.921875 128.695312 L 441.921875 93.933594 C 441.921875 90.070312 438.757812 86.910156 434.894531 86.910156 L 322.480469 86.910156 C 303.863281 87.261719 284.894531 86.207031 266.277344 88.3125 C 254.683594 89.367188 243.089844 90.421875 231.148438 91.472656 C 229.390625 88.664062 224.121094 86.558594 217.796875 86.558594 C 210.070312 86.558594 203.746094 89.71875 203.746094 93.582031 C 203.746094 97.445312 210.070312 100.605469 217.796875 100.605469 C 224.121094 100.605469 229.039062 98.496094 231.148438 95.6875 C 242.738281 96.742188 254.332031 98.144531 266.277344 98.847656 C 284.894531 101.304688 303.863281 100.253906 322.480469 100.253906 L 427.867188 100.253906 L 427.867188 127.992188 C 428.21875 129.046875 427.167969 130.097656 428.21875 130.800781 L 430.328125 133.609375 C 430.679688 134.3125 431.382812 134.664062 431.734375 135.367188 C 425.410156 136.769531 420.84375 142.390625 420.84375 149.0625 C 420.84375 155.382812 425.058594 160.648438 430.679688 162.402344 C 429.625 167.671875 428.570312 172.585938 427.867188 177.855469 L 425.410156 191.898438 L 423.652344 205.945312 C 422.949219 210.507812 421.898438 215.425781 420.84375 219.992188 C 419.789062 224.554688 419.789062 229.472656 420.84375 234.035156 C 421.546875 238.601562 422.949219 243.515625 425.058594 248.082031 C 427.167969 252.644531 429.625 257.5625 433.488281 262.125 L 436.300781 262.125 C 440.164062 257.5625 442.972656 252.644531 444.730469 248.082031 C 446.839844 243.515625 447.890625 238.601562 448.945312 234.035156 C 450 230.171875 450 225.609375 448.945312 220.691406 Z M 448.945312 220.691406 " fill-opacity="1" fill-rule="nonzero"/><g clip-path="url(#id2)"><path fill="#e6a6cd" d="M 400.117188 349.207031 C 396.957031 344.644531 390.632812 340.429688 385.363281 339.375 C 240.632812 307.773438 52.691406 239.652344 50.9375 239.304688 C 50.585938 239.304688 49.882812 238.953125 49.53125 238.953125 C 48.828125 238.953125 28.453125 241.058594 21.078125 265.285156 C 18.265625 275.117188 17.214844 293.730469 31.96875 303.910156 C 28.804688 305.316406 24.589844 307.421875 20.023438 308.476562 C 18.617188 308.828125 17.5625 310.234375 17.5625 311.988281 C 17.5625 313.742188 18.96875 315.148438 20.375 315.148438 C 21.078125 315.148438 81.5 326.035156 148.945312 347.101562 L 88.875 366.0625 L 121.546875 368.171875 L 120.140625 384.671875 L 159.484375 366.0625 L 148.945312 399.070312 L 171.078125 393.453125 L 188.992188 405.742188 L 191.804688 361.5 C 259.953125 386.429688 322.132812 416.976562 353.746094 441.910156 C 354.449219 442.261719 355.152344 442.609375 355.855469 442.609375 C 356.558594 442.609375 357.261719 442.261719 357.960938 441.910156 C 357.960938 441.910156 373.417969 429.96875 385.363281 420.488281 C 385.714844 420.136719 386.066406 419.789062 386.066406 419.4375 C 390.984375 415.222656 394.496094 409.605469 396.957031 403.984375 C 405.035156 387.832031 409.953125 363.253906 400.117188 349.207031 Z M 27.75 267.042969 C 33.019531 249.484375 46.019531 246.324219 49.53125 245.972656 C 56.558594 248.433594 107.496094 266.691406 174.238281 288.109375 C 165.105469 291.269531 157.726562 299.347656 153.511719 307.773438 C 149.648438 315.148438 146.488281 325.332031 148.242188 334.460938 C 83.605469 312.691406 42.503906 301.804688 41.804688 301.453125 C 20.375 293.027344 27.402344 268.097656 27.75 267.042969 Z M 356.558594 434.886719 C 331.96875 415.925781 295.785156 397.316406 258.195312 380.460938 C 292.621094 393.453125 329.859375 408.550781 368.5 425.054688 L 368.851562 425.054688 C 363.582031 429.617188 359.015625 433.128906 356.558594 434.886719 Z M 391.335938 401.527344 C 388.523438 407.847656 380.796875 419.4375 372.015625 418.382812 C 367.449219 418.03125 365.339844 411.710938 364.285156 407.847656 C 360.773438 395.558594 365.339844 378.351562 373.769531 369.222656 C 376.582031 366.414062 380.796875 363.253906 384.308594 363.253906 C 386.066406 363.253906 387.472656 363.957031 388.875 365.710938 C 394.144531 371.679688 390.984375 388.183594 386.066406 395.558594 C 383.957031 398.71875 380.796875 400.824219 377.984375 401.527344 C 376.230469 401.878906 374.824219 401.527344 373.769531 400.476562 C 371.664062 398.71875 370.609375 395.558594 370.960938 392.046875 C 371.3125 387.484375 373.769531 383.621094 376.582031 382.214844 L 376.933594 382.214844 C 377.285156 382.566406 377.285156 383.621094 376.933594 385.023438 C 376.230469 386.78125 377.632812 388.886719 379.390625 389.238281 C 381.148438 389.941406 383.253906 388.535156 383.605469 386.78125 C 384.660156 382.566406 383.957031 378.703125 381.148438 376.597656 C 380.09375 375.894531 377.285156 374.140625 373.066406 376.246094 C 368.148438 379.054688 364.285156 385.023438 363.582031 391.695312 C 362.878906 397.664062 364.988281 403.285156 368.851562 406.445312 C 371.664062 408.550781 375.175781 409.605469 378.6875 408.902344 C 383.605469 408.199219 388.523438 404.6875 391.6875 399.773438 C 391.6875 399.421875 392.039062 399.421875 392.039062 399.070312 C 392.039062 399.773438 391.6875 400.824219 391.335938 401.527344 Z M 398.359375 373.085938 C 398.007812 368.519531 396.605469 364.308594 393.792969 361.5 C 390.984375 358.339844 387.820312 356.933594 383.957031 356.582031 C 383.957031 356.582031 383.957031 356.582031 383.605469 356.582031 C 376.230469 356.582031 370.257812 362.199219 367.796875 364.660156 C 357.609375 375.542969 352.691406 395.558594 356.558594 409.957031 C 356.910156 411.359375 357.261719 412.414062 357.609375 413.46875 C 297.191406 387.832031 240.632812 366.414062 192.855469 349.558594 C 189.695312 340.429688 193.910156 329.894531 198.125 321.820312 C 202.691406 313.394531 210.070312 304.964844 219.554688 302.15625 C 272.597656 318.308594 330.914062 334.460938 383.605469 346.046875 C 387.121094 346.75 392.039062 349.910156 394.144531 353.070312 C 397.65625 357.988281 399.0625 365.011719 398.359375 373.085938 Z M 398.359375 373.085938 " fill-opacity="1" fill-rule="nonzero"/></g></svg>
